!!!COM: Gonzaga, Francisca
!!!CDT: 1847/10/17-1935/02/28
!!!OTL: Ainda não morreu
**kern	**dynam	**kern
*part2	*part2	*part1
*staff2	*	*staff1
*I"Piano	*	*I"Piano
*clefF4	*	*clefG2
*k[b-e-a-]	*	*k[b-e-a-]
*M2/4	*	*M2/4
=1	=1	=1
*E-:	*E-:	*
16BB-KL	p	4r
8BB-	.	.
16BB-Jk	.	.
8BB-L	.	16r
.	.	(16gLL
8BB-J	.	16e-
.	.	16B-JJ)
=||	=||	=||
16BB-KL	.	4A-^
8BB-	.	.
16BB-Jk	.	.
8BB-L	.	16r
.	.	(16fLL
8BB-J	.	16d
.	.	16A-JJ)
=	=	=
16BB-KL	.	4G^
8BB-	.	.
16BB-Jk	.	.
8BB-L	.	16r
.	.	(16e-LL
8BB-J	.	16B-
.	.	16GJJ)
=	=	=
8.BB-L	.	(16FLL
.	.	16A-
.	.	16B-
16BB-Jk	.	16dJJ
8BB-L	.	16fLL
.	.	16a-
8BB-J	.	16b-
.	.	16ddJJ)
=	=	=
8.BB-L	.	(16ee-LL
.	.	16ggJ)
.	.	8b-^J
16BB-Jk	.	.
8BB-L	.	16r
.	.	(16gLL
8BB-J	.	16e-
.	.	16B-JJ)
!!linebreak:original
=	=	=
16BB-KL	.	4A-^
8BB-	.	.
16BB-Jk	.	.
8BB-L	.	16r
.	.	(16fLL
8BB-J	.	16d
.	.	16A-JJ)
=	=	=
16BB-KL	.	4G^
8BB-	.	.
16BB-Jk	.	.
8BB-L	.	16r
.	.	(16e-LL
8BB-J	.	16B-
.	.	16GJJ)
=	=	=
8.BB-L	.	(16FLL
.	.	16A-
.	.	16B-
16BB-Jk	.	16dJJ
8BB-L	.	16fLL
.	.	16a-
8BB-J	.	16b-
.	.	16ddJJ)
=	=	=
8BB-	.	8ff
8r;	.	8r;
4r	.	16r
.	.	(16ggLL
.	.	16ee-
.	.	16b-JJ)
=||	=||	=||
!	!	!LO:TX:a:t=Con grazia
8.FL	.	(16anLL
.	.	16gg
.	.	16ff
16AnJk 16c 16e-	.	16aJJ)
8BB-L	.	(16ggLL
.	.	16ff
8A-XJ 8B- 8d	.	16dd
.	.	16a-XJJ)
=	=	=
16GKL	.	8.b-L 8.bb-
8B- 8e- 8g	.	.
16B-Jk 16e- 16g	.	16b-^Jk 16bb-
8GL	.	16r
.	.	(16ggLL
8B-J 8e- 8g	.	16ee-
.	.	16b-JJ)
!!linebreak:original
=	=	=
16FKL	.	8.a-L
8A- 8B- 8d	.	.
16A-Jk 16B- 16d	.	16dd^Jk 16bb-
8BB-L	.	16r
.	.	(16ffLL
8A-J 8B- 8d	.	16dd
.	.	16b-JJ)
=	=	=
16E-KL	.	8.gL
8B- 8e- 8g	.	.
16B-Jk 16e- 16g	.	16gg^Jk 16bb-
8E-L	.	16r
.	.	(16ggLL
8B-J 8e- 8g	.	16ee-
.	.	16b-JJ)
=	=	=
8.CL	.	(16anLL
.	.	16gg
.	.	16ff
16FJk 16An 16e-	.	16aJJ)
8DL	.	(16ggLL
.	.	16ff
8A-XJ 8B- 8d	.	16dd
.	.	16a-XJJ)
=	=	=
16E-KL	.	8.b-L 8.bb-
8B- 8e- 8g	.	.
16B-Jk 16e- 16g	.	16b-^Jk 16bb-
8GL	.	16r
.	.	(16bb-LL
8B-J 8e- 8g	.	16gg
.	.	16ee-JJ)
=	=	=
8.DL	.	16ddLL
.	.	16ddd
.	.	16bb-
16B-Jk 16d 16g	.	16ggJJ
8DL	.	16dddLL
.	.	16ccc
8cJ 8d 8f#X	.	16aan
.	.	16dddJJ
!!linebreak:original
=	=	=
16GKL	.	4ddd
8B- 8d 8g	.	.
16B-Jk 16d 16g	.	.
8G	.	16r
.	.	(16ggLL
8r	.	16ee-
.	.	16b-JJ)
=	=	=
8.FL	.	(16anLL
.	.	16gg
.	.	16ff
16AnJk 16c 16e-	.	16aJJ)
8BB-L	.	(16ggLL
.	.	16ff
8A-XJ 8B- 8d	.	16dd
.	.	16a-XJJ)
=	=	=
16GKL	.	8.b-L 8.bb-
8B- 8e- 8g	.	.
16B-Jk 16e- 16g	.	16b-^Jk 16bb-
8GL	.	16r
.	.	(16ggLL
8B-J 8e- 8g	.	16ee-
.	.	16b-JJ)
=	=	=
16FKL	.	8.a-L
8A- 8B- 8d	.	.
16A-Jk 16B- 16d	.	16dd^Jk 16bb-
8BB-L	.	16r
.	.	(16ffLL
8A-J 8B- 8d	.	16dd
.	.	16b-JJ)
=	=	=
16E-KL	.	8.gL
8B- 8e- 8g	.	.
16B-Jk 16e- 16g	.	16gg^Jk 16bb-
8E-L	.	16r
.	.	(16ggLL
8B-J 8e- 8g	.	16ee-
.	.	16b-JJ)
=	=	=
8.CL	.	(16anLL
.	.	16gg
.	.	16ff
16FJk 16An 16e-	.	16aJJ)
8DL	.	(16ggLL
.	.	16ff
8A-XJ 8B- 8d	.	16dd
.	.	16a-XJJ)
!!linebreak:original
=	=	=
16GKL	.	8.b-L 8.bb-
8B- 8e- 8g	.	.
16B-Jk 16e- 16g	.	16b-^Jk 16bb-
8A-L	.	16r
.	.	(16cccLL
8cJ 8f 8a-	.	16eee-
.	.	16cccJJ)
=	=	=
8.GL	.	(16bb-LL
.	.	16ee-
.	.	16gg
16B-Jk 16e- 16g	.	16b-JJ)
8BB-L	.	(16ffLL
.	.	16gg
8A-J 8B- 8d	.	16b-
.	.	16bb-JJ)
=	=	=
16E-KL	.	8g 8ee-
8G 8B- 8e-	.	.
.	.	8r
16GJk 16B- 16e-	.	.
16EE-	.	16r
16r	.	(16gLL
8r	.	16e-
.	.	16B-JJ)
=||	=||	=||
16BB-KL	p	4A-^
8BB-	.	.
16BB-Jk	.	.
8BB-L	.	16r
.	.	(16fLL
8BB-J	.	16d
.	.	16A-JJ)
=	=	=
16BB-KL	.	4G^
8BB-	.	.
16BB-Jk	.	.
8BB-L	.	16r
.	.	(16e-LL
8BB-J	.	16B-
.	.	16GJJ)
=	=	=
8.BB-L	.	(16FLL
.	.	16A-
.	.	16B-
16BB-Jk	.	16dJJ
8BB-L	.	16fLL
.	.	16a-
8BB-J	.	16b-
.	.	16ddJJ)
!!pagebreak:original
=	=	=
8.BB-L	.	(16ee-LL
.	.	16ggJ)
.	.	8b-^J
16BB-Jk	.	.
8BB-L	.	16r
.	.	(16gLL
8BB-J	.	16e-
.	.	16B-JJ)
=	=	=
16BB-KL	.	4A-^
8BB-	.	.
16BB-Jk	.	.
8BB-L	.	16r
.	.	(16fLL
8BB-J	.	16d
.	.	16A-JJ)
=	=	=
16BB-KL	.	4G^
8BB-	.	.
16BB-Jk	.	.
8BB-L	.	16r
.	.	(16e-LL
8BB-J	.	16B-
.	.	16GJJ)
=	=	=
8.BB-L	.	(16FLL
.	.	16A-
.	.	16B-
16BB-Jk	.	16dJJ
8BB-L	.	16fLL
.	.	16a-
8BB-J	.	16b-
.	.	16ddJJ)
=	=	=
8BB-	.	8ff
8r;	.	8r;
4r	.	16r
.	.	(16ggLL
.	.	16ee-
.	.	16b-JJ)
=||	=||	=||
8.FL	.	(16anLL
.	.	16gg
.	.	16ff
16AnJk 16c 16e-	.	16aJJ)
8BB-L	.	(16ggLL
.	.	16ff
8A-XJ 8B- 8d	.	16dd
.	.	16a-XJJ)
!!linebreak:original
=	=	=
16GKL	.	8.b-L 8.bb-
8B- 8e- 8g	.	.
16B-Jk 16e- 16g	.	16b-^Jk 16bb-
8GL	.	16r
.	.	(16ggLL
8B-J 8e- 8g	.	16ee-
.	.	16b-JJ)
=	=	=
16FKL	.	8.a-L
8A- 8B- 8d	.	.
16A-Jk 16B- 16d	.	16dd^Jk 16bb-
8BB-L	.	16r
.	.	(16ffLL
8A-J 8B- 8d	.	16dd
.	.	16b-JJ)
=	=	=
16E-KL	.	8.gL
8B- 8e- 8g	.	.
16B-Jk 16e- 16g	.	16gg^Jk 16bb-
8E-L	.	16r
.	.	(16ggLL
8B-J 8e- 8g	.	16ee-
.	.	16b-JJ)
=	=	=
8.CL	.	(16anLL
.	.	16gg
.	.	16ff
16AnJk 16c 16e-	.	16aJJ)
8DL	.	(16ggLL
.	.	16ff
8A-XJ 8B- 8d	.	16dd
.	.	16a-XJJ)
=	=	=
16E-KL	.	8.b-L 8.bb-
8B- 8e- 8g	.	.
16B-Jk 16e- 16g	.	16b-^Jk 16bb-
8GL	.	16r
.	.	(16bb-LL
8B-J 8e- 8g	.	16gg
.	.	16ee-JJ)
!!linebreak:original
=	=	=
8.DL	.	16ddLL
.	.	16ddd
.	.	16bb-
16B-Jk 16d 16g	.	16ggJJ
8DL	.	16dddLL
.	.	16ccc
8cJ 8d 8f#X	.	16aan
.	.	16dddJJ
=	=	=
16GKL	.	4ddd
8B- 8d 8g	.	.
16B-Jk 16d 16g	.	.
8G	.	16r
.	.	(16ggLL
8r	.	16ee-
.	.	16b-JJ)
=	=	=
8.FL	.	(16anLL
.	.	16gg
.	.	16ff
16AnJk 16c 16e-	.	16aJJ)
8BB-L	.	(16ggLL
.	.	16ff
8A-XJ 8B- 8d	.	16dd
.	.	16a-XJJ)
=	=	=
16GKL	.	8.b-L 8.bb-
8B- 8e- 8g	.	.
16B-Jk 16e- 16g	.	16b-^Jk 16bb-
8GL	.	16r
.	.	(16ggLL
8B-J 8e- 8g	.	16ee-
.	.	16b-JJ)
=	=	=
16FKL	.	8.a-L
8A- 8B- 8d	.	.
16A-Jk 16B- 16d	.	16dd^Jk 16bb-
8BB-L	.	16r
.	.	(16ffLL
8A-J 8B- 8d	.	16dd
.	.	16b-JJ)
!!linebreak:original
=	=	=
16E-KL	.	8.gL
8B- 8e- 8g	.	.
16B-Jk 16e- 16g	.	16gg^Jk 16bb-
8E-L	.	16r
.	.	(16ggLL
8B-J 8e- 8g	.	16ee-
.	.	16b-JJ)
=	=	=
8.CL	.	(16anLL
.	.	16gg
.	.	16ff
16FJk 16An 16e-	.	16aJJ)
8DL	.	(16ggLL
.	.	16ff
8A-XJ 8B- 8d	.	16dd
.	.	16a-XJJ)
=	=	=
16GKL	.	8.b-L 8.bb-
8B- 8e- 8g	.	.
16B-Jk 16e- 16g	.	16b-^Jk 16bb-
8A-L	.	16r
.	.	(16cccLL
8cJ 8f 8a-	.	16eee-
.	.	16cccJJ)
=	=	=
8.GL	.	(16bb-LL
.	.	16ee-
.	.	16gg
16B-Jk 16e- 16g	.	16b-JJ)
8BB-L	.	(16ffLL
.	.	16gg
8A-J 8B- 8d	.	16b-
.	.	16bb-JJ)
=	=	=
16E-KL	.	8g 8ee-
8G 8B- 8e-	.	.
.	.	8r
16GJk 16B- 16e-	.	.
16EE-	.	4r
16r	.	.
8r	.	.
=!|:	=!|:	=!|:
*c:	*c:	*
!	!	!LO:TX:a:t=Fine
16CCKL	.	16r
8C	.	8cL 8e- 8g
16CJk	.	16cJk 16e- 16g
8DDL	.	8r
8DJ	.	8Bn 8f 8a-
!!linebreak:original
=	=	=
16GGKL	.	16r
8G	.	8BnL 8d 8f
16GJk	.	16BJk 16d 16f
8CCL	.	8r
8CJ	.	8c 8e- 8g
=	=	=
16CKL	.	16gKL
8E- 8G 8c	.	8ee-
16E-Jk 16G 16c	.	16gJk
16DKL	.	16fKL
8F 8G 8Bn	.	8dd
16FJk 16G 16B	.	16bnJk
=	=	=
8GGL	.	8ggL
8FJ 8G 8Bn	.	8bnJ 8ff
16CKL	.	16gKL 16ee-
8E- 8G 8c	.	8ccJ
16E-Jk 16G 16c	.	16r
=	=	=
16CCKL	.	16r
8C	.	8cL 8e- 8g
16CJk	.	16cJk 16e- 16g
8DDL	.	8r
8DJ	.	8Bn 8f 8a-
=	=	=
16GGKL	.	16r
8G	.	8BnL 8d 8f
16GJk	.	16BJk 16d 16f
8CCL	.	8r
8CJ	.	8c 8e- 8g
=	=	=
16FFKL	.	16a-KL
8A- 8c 8f	.	8cc
16A-Jk 16c 16f	.	16ddJk
16GGKL	.	16ee-KL
8c 8e- 8g	.	8ff
16cJk 16e- 16g	.	16ff#XJk
=	=	=
8GGL	.	8ggL
8FJ 8G 8Bn	.	8fJ 8bn
4C	.	4e- 4cc
!!linebreak:original
=:|!	=:|!	=:|!
8GGL	.	8ggL
8FJ 8G 8Bn	.	8fJ 8bn
8C	.	16e- 16cc
.	.	(16gLL
8r	.	16e-
.	.	16B-JJ)
==	==	==
*-	*-	*-
!!!system-decoration: {(s1,s2)}
!!!AGN: Tango
!!!EED: Florian Moldaschl
!!!END: 2025/12/23
!!!ENC: Florian Moldaschl
!!!EEV: 2025/12/23
!!!title: @{OPR}, @{SCT} №@{ONM}